icons/solid/minus.svg

<svg width="24" height="24" viewBox="0 0 24 24" fill="none" xmlns="http://www.w3.org/2000/svg">
<path fill-rule="evenodd" clip-rule="evenodd" d="M5 1C2.79086 1 1 2.79086 1 5V19C1 21.2091 2.79086 23 5 23H19C21.2091 23 23 21.2091 23 19V5C23 2.79086 21.2091 1 19 1H5ZM6 11C5.44772 11 5 11.4477 5 12C5 12.5523 5.44772 13 6 13H18C18.5523 13 19 12.5523 19 12C19 11.4477 18.5523 11 18 11H6Z" fill="currentColor"/>
</svg>

<svg width="24" height="24" fill="none" xmlns="http://www.w3.org/2000/svg"><path fill-rule="evenodd" clip-rule="evenodd" d="M5 1a4 4 0 00-4 4v14a4 4 0 004 4h14a4 4 0 004-4V5a4 4 0 00-4-4H5zm1 10a1 1 0 100 2h12a1 1 0 100-2H6z" fill="currentColor"/></svg>
